lib/svgs/board.svg

<svg xmlns="http://www.w3.org/2000/svg" viewBox="0 0 20 20">
    <path fill="#000" fill-rule="evenodd" d="M8.84273593,11.3579641 C9.0770618,11.5922899 9.4569831,11.592277 9.69129299,11.3579351 L17.024293,4.02393514 C17.2585916,3.78960459 17.2585657,3.4097056 17.0242351,3.17540701 C16.7899046,2.94110841 16.4100056,2.94113431 16.175707,3.17546486 L9.28695899,10.1051309 L7.02426407,7.84243593 C6.78994949,7.60812136 6.41005051,7.60812136 6.17573593,7.84243593 C5.94142136,8.07675051 5.94142136,8.45664949 6.17573593,8.69096407 L8.84273593,11.3579641 Z M14.6666998,15.7024536 L3.22729497,15.6669998 L3.19970005,4.20000005 L11.9337,4.2 C12.2650708,4.2 12.5337,3.93137085 12.5337,3.6 C12.5337,3.26862915 12.2650708,3 11.9337,3 L2.5997,3 C2.26832915,3 1.9997,3.26862915 1.9997,3.6 L1.9997,16.267 C1.9997,16.5983708 2.26832915,16.867 2.5997,16.867 L15.2667,16.867 C15.5980708,16.867 15.8667,16.5983708 15.8667,16.267 L15.8667,9.6 C15.8667,9.26862915 15.5980708,9 15.2667,9 C14.9353292,9 14.6667,9.26862915 14.6667,9.6 L14.6666998,15.7024536 Z"/>
</svg>

<svg xmlns="http://www.w3.org/2000/svg" viewBox="0 0 20 20">
    <path fill="#000" fill-rule="evenodd" d="M8.843 11.358a.6.6 0 0 0 .848 0l7.333-7.334a.6.6 0 1 0-.848-.849l-6.889 6.93-2.263-2.263a.6.6 0 0 0-.848.849m8.49 7.011l-11.439-.035L3.2 4.2h8.734a.6.6 0 0 0 0-1.2H2.6a.6.6 0 0 0-.6.6v12.667a.6.6 0 0 0 .6.6h12.667a.6.6 0 0 0 .6-.6V9.6a.6.6 0 0 0-1.2 0"/>
</svg>
